svg/fluentui-system-icons/ic_fluent_radar_checkmark_20_regular.svg

<svg width="20" height="20" viewBox="0 0 20 20" fill="none" xmlns="http://www.w3.org/2000/svg">
<path d="M14.4969 3.38176L13.7752 4.1035C11.0657 2.36507 7.41985 2.68065 5.05025 5.05025C3.78679 6.31372 3.10728 7.94001 3.01173 9.59373C2.65109 9.777 2.31338 9.99885 2.004 10.2539C1.93676 8.12271 2.71648 5.96981 4.34315 4.34315C7.10481 1.58148 11.3832 1.26102 14.4969 3.38176ZM9.74614 17.996C10.0011 17.6866 10.223 17.3489 10.4063 16.9883C12.06 16.8927 13.6863 16.2132 14.9497 14.9497C15.145 14.7545 15.4616 14.7545 15.6569 14.9497C15.8521 15.145 15.8521 15.4616 15.6569 15.6569C14.0302 17.2835 11.8773 18.0632 9.74614 17.996ZM11 14.5C11 14.6354 10.9951 14.7696 10.9855 14.9025C11.9199 14.7155 12.8112 14.2599 13.5355 13.5355C13.7308 13.3403 13.7308 13.0237 13.5355 12.8284C13.3403 12.6332 13.0237 12.6332 12.8284 12.8284C12.2949 13.3619 11.6483 13.7132 10.9657 13.8823C10.9884 14.0851 11 14.2912 11 14.5ZM5.5 9C5.70883 9 5.91493 9.01164 6.1177 9.0343C6.2868 8.35174 6.63809 7.70506 7.17157 7.17157C8.35858 5.98456 10.106 5.69954 11.5622 6.31651L12.313 5.56566C10.4281 4.58178 8.04755 4.88138 6.46447 6.46447C5.74012 7.18881 5.28448 8.08012 5.09754 9.0145C5.23044 9.00489 5.36465 9 5.5 9ZM9.04384 10.2937C9.28294 10.4954 9.5046 10.7171 9.70625 10.9562C9.79913 10.9847 9.89778 11 10 11C10.5523 11 11 10.5523 11 10C11 9.91042 10.9882 9.82359 10.9661 9.74098L15.8536 4.85355C16.0488 4.65829 16.0488 4.34171 15.8536 4.14645C15.6583 3.95118 15.3417 3.95118 15.1464 4.14645L10.259 9.03387C10.1764 9.01178 10.0896 9 10 9C9.44772 9 9 9.44772 9 10C9 10.1022 9.01534 10.2009 9.04384 10.2937ZM17 13.5C17 13.7761 16.7761 14 16.5 14C16.2239 14 16 13.7761 16 13.5C16 13.2239 16.2239 13 16.5 13C16.7761 13 17 13.2239 17 13.5ZM16.5 7C16.7761 7 17 6.77614 17 6.5C17 6.22386 16.7761 6 16.5 6C16.2239 6 16 6.22386 16 6.5C16 6.77614 16.2239 7 16.5 7ZM18 11.25C18 11.5261 17.7761 11.75 17.5 11.75C17.2239 11.75 17 11.5261 17 11.25C17 10.9739 17.2239 10.75 17.5 10.75C17.7761 10.75 18 10.9739 18 11.25ZM17.5 9.25C17.7761 9.25 18 9.02614 18 8.75C18 8.47386 17.7761 8.25 17.5 8.25C17.2239 8.25 17 8.47386 17 8.75C17 9.02614 17.2239 9.25 17.5 9.25ZM15 11.25C15 11.5261 14.7761 11.75 14.5 11.75C14.2239 11.75 14 11.5261 14 11.25C14 10.9739 14.2239 10.75 14.5 10.75C14.7761 10.75 15 10.9739 15 11.25ZM14.5 9.25C14.7761 9.25 15 9.02614 15 8.75C15 8.47386 14.7761 8.25 14.5 8.25C14.2239 8.25 14 8.47386 14 8.75C14 9.02614 14.2239 9.25 14.5 9.25ZM10 14.5C10 16.9853 7.98528 19 5.5 19C3.01472 19 1 16.9853 1 14.5C1 12.0147 3.01472 10 5.5 10C7.98528 10 10 12.0147 10 14.5ZM7.85355 12.6464C7.65829 12.4512 7.34171 12.4512 7.14645 12.6464L4.5 15.2929L3.85355 14.6464C3.65829 14.4512 3.34171 14.4512 3.14645 14.6464C2.95118 14.8417 2.95118 15.1583 3.14645 15.3536L4.14645 16.3536C4.34171 16.5488 4.65829 16.5488 4.85355 16.3536L7.85355 13.3536C8.04882 13.1583 8.04882 12.8417 7.85355 12.6464Z" fill="#212121"/>
</svg>

<svg xmlns="http://www.w3.org/2000/svg" width="20" height="20"><path d="m14.497 3.382-.722.722a7.003 7.003 0 0 0-10.763 5.49c-.36.183-.699.405-1.008.66a8.003 8.003 0 0 1 12.493-6.872Zm-4.75 14.614a5.61 5.61 0 0 0 .66-1.008 6.974 6.974 0 0 0 4.543-2.038.5.5 0 0 1 .707.707 7.978 7.978 0 0 1-5.91 2.339ZM11 14.5c0 .135-.005.27-.014.402a4.977 4.977 0 0 0 2.55-1.366.5.5 0 1 0-.708-.708 3.981 3.981 0 0 1-1.862 1.054c.022.203.034.41.034.618ZM5.5 9c.209 0 .415.012.618.034a4.001 4.001 0 0 1 5.445-2.718l.75-.75a5.002 5.002 0 0 0-7.215 3.449A5.58 5.58 0 0 1 5.5 9Zm3.544 1.294c.239.201.46.423.662.662a1 1 0 0 0 1.26-1.215l4.888-4.887a.5.5 0 0 0-.708-.708L10.26 9.034a1.001 1.001 0 0 0-1.215 1.26ZM17 13.5a.5.5 0 1 1-1 0 .5.5 0 0 1 1 0ZM16.5 7a.5.5 0 1 0 0-1 .5.5 0 0 0 0 1Zm1.5 4.25a.5.5 0 1 1-1 0 .5.5 0 0 1 1 0Zm-.5-2a.5.5 0 1 0 0-1 .5.5 0 0 0 0 1Zm-2.5 2a.5.5 0 1 1-1 0 .5.5 0 0 1 1 0Zm-.5-2a.5.5 0 1 0 0-1 .5.5 0 0 0 0 1ZM10 14.5a4.5 4.5 0 1 1-9 0 4.5 4.5 0 0 1 9 0Zm-2.146-1.854a.5.5 0 0 0-.708 0L4.5 15.293l-.646-.647a.5.5 0 0 0-.708.708l1 1a.5.5 0 0 0 .708 0l3-3a.5.5 0 0 0 0-.708Z"/></svg>
